svgs/solid/motorcycle.svg

<svg xmlns="http://www.w3.org/2000/svg" viewBox="0 0 640 512"><!-- Font Awesome Pro 6.0.0-alpha2 by @fontawesome - https://fontawesome.com License - https://fontawesome.com/license (Commercial License) --><path d="M96 352C96 369.674 110.326 384 128 384S160 369.674 160 352S145.674 320 128 320S96 334.326 96 352ZM198.066 336H254.387C246.432 272.945 193.213 224 128 224C57.309 224 0 281.307 0 352S57.309 480 128 480C193.213 480 246.432 431.055 254.387 368H198.066C190.75 400 162.184 424 128 424C88.299 424 56 391.701 56 352S88.299 280 128 280C162.184 280 190.75 304 198.066 336ZM512 224C498.535 224 485.809 226.652 473.619 230.506L418.209 128H480C497.674 128 512 113.674 512 96V64C512 46.326 497.674 32 480 32H459.586C452.1 32 444.85 34.625 439.1 39.416L391.684 78.93L373.125 44.594C368.932 36.836 360.822 32 352.002 32H272C263.164 32 256 39.164 256 48V64C256 72.836 263.164 80 272 80H337.688L354.057 110.285L256 192H233.938L211.719 169.781C195.211 153.273 172.822 144 149.477 144H48C39.164 144 32 151.164 32 160V176C32 184.836 39.164 192 48 192H128C216.365 192 288 263.635 288 352C288 362.961 286.875 373.658 284.775 384H355.225C353.125 373.658 352 362.961 352 352C352 299.836 377.344 254.074 416.061 224.996L431.377 253.332C402.689 276.805 384 312.041 384 352C384 422.693 441.307 480 512 480S640 422.693 640 352S582.693 224 512 224ZM512 424C472.299 424 440 391.701 440 352C440 333.482 447.223 316.744 458.75 303.973L483.27 349.338C487.471 357.107 497.174 360.006 504.947 355.809L519.039 348.199C526.818 344 529.717 334.287 525.514 326.512L500.975 281.115C504.596 280.553 508.225 280 512 280C551.701 280 584 312.299 584 352S551.701 424 512 424Z"/></svg>

<svg xmlns="http://www.w3.org/2000/svg" viewBox="0 0 640 512"><!--! Font Awesome Pro 6.0.0-alpha3 by @fontawesome - https://fontawesome.com License - https://fontawesome.com/license (Commercial License) --><path d="M96 352c0 17.67 14.33 32 32 32s32-14.33 32-32s-14.33-32-32-32S96 334.3 96 352zM198.1 336H254.4C246.4 272.9 193.2 224 128 224c-70.69 0-128 57.31-128 128s57.31 128 128 128c65.21 0 118.4-48.95 126.4-112H198.1C190.8 400 162.2 424 128 424c-39.7 0-72-32.3-72-72S88.3 280 128 280C162.2 280 190.8 304 198.1 336zM512 224c-13.46 0-26.19 2.65-38.38 6.503L418.2 128H480c17.67 0 32-14.33 32-32V64c0-17.67-14.33-32-32-32h-20.41c-7.486 0-14.74 2.625-20.49 7.416l-47.42 39.51l-18.56-34.34C368.9 36.84 360.8 32 352 32H272C263.2 32 256 39.16 256 48V64c0 8.836 7.164 16 16 16h65.69L354.1 110.3L256 192H233.9L211.7 169.8C195.2 153.3 172.8 144 149.5 144H48C39.16 144 32 151.2 32 160v16C32 184.8 39.16 192 48 192H128c88.37 0 160 71.63 160 160c0 10.96-1.125 21.66-3.225 32h70.45C353.1 373.7 352 362.1 352 352c0-52.16 25.34-97.93 64.06-127l15.31 28.33C402.7 276.8 384 312 384 352c0 70.69 57.31 128 128 128s128-57.31 128-128S582.7 224 512 224zM512 424c-39.7 0-72-32.3-72-72c0-18.52 7.21-35.28 18.74-48.05l24.53 45.39c4.201 7.77 13.88 10.62 21.65 6.42l14.14-7.51c7.779-4.199 10.65-13.96 6.446-21.74l-24.54-45.4C504.6 280.5 508.2 280 512 280c39.7 0 72 32.3 72 72S551.7 424 512 424z"/></svg>
